; generated by PrusaSlicer 2.3.1+win64 on 2021-05-21 at 01:18:35 UTC

; 

; external perimeters extrusion width = 0.80mm
; perimeters extrusion width = 0.80mm
; infill extrusion width = 0.80mm
; solid infill extrusion width = 0.80mm
; top infill extrusion width = 0.42mm
; first layer extrusion width = 0.42mm

M73 P0 R26
M73 Q0 S26
M201 X1000 Y1000 Z200 E5000 ; sets maximum accelerations, mm/sec^2
M203 X200 Y200 Z12 E120 ; sets maximum feedrates, mm/sec
M204 P1250 R1250 T1250 ; sets acceleration (P, T) and retract acceleration (R), mm/sec^2
M205 X8.00 Y8.00 Z0.40 E4.50 ; sets the jerk limits, mm/sec
M205 S0 T0 ; sets the minimum extruding and travel feed rate, mm/sec
M107
;TYPE:Custom
M862.3 P "MK3S" ; printer model check
M862.1 P0.4 ; nozzle diameter check
M115 U3.9.1 ; tell printer latest fw version
G90 ; use absolute coordinates
M83 ; extruder relative mode
M104 S225 ; set extruder temp
M140 S60 ; set bed temp
M190 S60 ; wait for bed temp
M109 S225 ; wait for extruder temp
G28 W ; home all without mesh bed level
G80 ; mesh bed leveling
G1 Y-3.0 F1000.0 ; go outside print area
G92 E0.0
G1 X60.0 E9.0 F1000.0 ; intro line
G1 X100.0 E12.5 F1000.0 ; intro line
G92 E0.0
M221 S95

; Don't change E values below. Excessive value can damage the printer.
M907 E430 ; set extruder motor current
G21 ; set units to millimeters
G90 ; use absolute coordinates
M83 ; use relative distances for extrusion
M900 K0.05 ; Filament gcode LA 1.5
M900 K30 ; Filament gcode LA 1.0
;LAYER_CHANGE
;Z:0.2
;HEIGHT:0.2
;BEFORE_LAYER_CHANGE
G92 E0.0
;0.2


G1 E-0.80000 F2100.000
G1 Z0.600 F10800.000
;AFTER_LAYER_CHANGE
;0.2
G1 X145.778 Y124.429
M73 P0 R25
G1 Z0.200
G1 E0.80000 F2100.000
M204 S1000
;TYPE:Skirt
;WIDTH:0.42
G1 F1200.000
G1 X145.373 Y125.127 E0.02532
G1 X145.009 Y125.479 E0.01585
G1 X144.582 Y125.743 E0.01574
G1 X144.106 Y125.914 E0.01585
G1 X143.605 Y125.979 E0.01585
G1 X109.870 Y125.980 E1.05774
G1 X108.990 Y125.905 E0.02770
G1 X107.777 Y125.573 E0.03943
G1 X106.974 Y125.185 E0.02797
G1 X106.267 Y124.698 E0.02690
G1 X105.324 Y123.739 E0.04216
G1 X104.768 Y122.874 E0.03225
G1 X104.270 Y121.580 E0.04345
G1 X104.098 Y120.163 E0.04477
G1 X104.099 Y89.734 E0.95407
G1 X104.176 Y88.892 E0.02653
G1 X104.520 Y87.659 E0.04013
G1 X104.916 Y86.854 E0.02814
G1 X105.405 Y86.156 E0.02672
G1 X106.392 Y85.204 E0.04299
G1 X107.192 Y84.691 E0.02981
G1 X108.498 Y84.193 E0.04382
G1 X109.470 Y84.033 E0.03088
G1 X140.287 Y84.020 E0.96625
G1 X141.154 Y84.096 E0.02729
G1 X142.066 Y84.329 E0.02953
G1 X143.229 Y84.881 E0.04036
G1 X143.982 Y85.440 E0.02940
G1 X144.639 Y86.128 E0.02985
G1 X145.329 Y87.216 E0.04040
G1 X145.673 Y88.096 E0.02961
G1 X145.853 Y88.949 E0.02734
G1 X145.926 Y123.635 E1.08756
M73 Q1 S26
G1 X145.789 Y124.370 E0.02343
;WIPE_START
G1 F8640.000
G1 X145.373 Y125.127 E-0.19954
G1 X145.009 Y125.479 E-0.11675
M73 P1 R25
G1 X144.582 Y125.743 E-0.11588
G1 X144.106 Y125.914 E-0.11675
G1 X143.605 Y125.979 E-0.11675
G1 X143.196 Y125.979 E-0.09432
;WIPE_END
G1 E-0.04000 F2100.000
G1 Z0.800 F10800.000
G1 X129.747 Y99.752
G1 Z0.200
G1 E0.80000 F2100.000
;TYPE:Perimeter
G1 F1200.000
G1 X129.464 Y99.870 E0.00959
G1 X129.086 Y99.934 E0.01202
G1 X128.727 Y99.887 E0.01136
G1 X128.403 Y99.752 E0.01100
G1 X128.125 Y99.539 E0.01100
G1 X127.911 Y99.261 E0.01100
G1 X127.777 Y98.936 E0.01100
G1 X127.731 Y98.589 E0.01100
G1 X127.777 Y98.241 E0.01100
G1 X127.911 Y97.917 E0.01100
G1 X128.125 Y97.638 E0.01100
G1 X128.403 Y97.425 E0.01100
G1 X128.727 Y97.291 E0.01100
G1 X129.031 Y97.251 E0.00959
G1 X129.412 Y97.286 E0.01202
G1 X129.747 Y97.425 E0.01136
G1 X130.025 Y97.638 E0.01100
G1 X130.239 Y97.917 E0.01100
G1 X130.373 Y98.241 E0.01100
G1 X130.419 Y98.589 E0.01100
G1 X130.373 Y98.936 E0.01100
G1 X130.239 Y99.261 E0.01100
G1 X130.025 Y99.539 E0.01100
G1 X129.795 Y99.716 E0.00912
;WIPE_START
G1 F8640.000
G1 X129.464 Y99.870 E-0.08412
G1 X129.086 Y99.934 E-0.08853
G1 X128.727 Y99.887 E-0.08363
G1 X128.403 Y99.752 E-0.08100
G1 X128.125 Y99.539 E-0.08100
G1 X127.911 Y99.261 E-0.08101
G1 X127.777 Y98.936 E-0.08101
G1 X127.731 Y98.589 E-0.08100
G1 X127.777 Y98.241 E-0.08100
G1 X127.806 Y98.170 E-0.01769
;WIPE_END
G1 E-0.04000 F2100.000
G1 Z0.800 F10800.000
G1 X128.833 Y97.657
G1 Z0.200
G1 E0.80000 F2100.000
;TYPE:External perimeter
G1 F1200.000
G1 X129.038 Y97.630 E0.00647
G1 X129.321 Y97.656 E0.00891
G1 X129.557 Y97.754 E0.00801
G1 X129.756 Y97.907 E0.00789
G1 X129.910 Y98.107 E0.00789
G1 X130.006 Y98.339 E0.00789
G1 X130.039 Y98.589 E0.00789
G1 X130.006 Y98.838 E0.00789
G1 X129.910 Y99.070 E0.00789
G1 X129.756 Y99.270 E0.00789
G1 X129.557 Y99.423 E0.00789
G1 X129.359 Y99.505 E0.00671
G1 X129.079 Y99.553 E0.00891
G1 X128.826 Y99.519 E0.00801
G1 X128.593 Y99.423 E0.00789
G1 X128.394 Y99.270 E0.00789
G1 X128.241 Y99.070 E0.00789
G1 X128.144 Y98.838 E0.00789
G1 X128.112 Y98.589 E0.00789
G1 X128.144 Y98.339 E0.00789
G1 X128.241 Y98.107 E0.00789
G1 X128.394 Y97.907 E0.00789
G1 X128.593 Y97.754 E0.00789
G1 X128.777 Y97.678 E0.00624
G1 X128.887 Y97.458 F10800.000
;WIPE_START
G1 F8640.000
G1 X129.038 Y97.630 E-0.06119
G1 X129.321 Y97.656 E-0.06560
G1 X129.557 Y97.754 E-0.05902
G1 X129.756 Y97.907 E-0.05808
G1 X129.910 Y98.107 E-0.05808
G1 X130.006 Y98.339 E-0.05808
G1 X130.039 Y98.589 E-0.05808
G1 X130.006 Y98.838 E-0.05808
G1 X129.910 Y99.070 E-0.05808
G1 X129.756 Y99.270 E-0.05808
G1 X129.557 Y99.423 E-0.05808
G1 X129.359 Y99.505 E-0.04941
G1 X129.102 Y99.549 E-0.06015
;WIPE_END
G1 E-0.04000 F2100.000
G1 Z0.800 F10800.000
G1 X127.051 Y89.837
G1 Z0.200
G1 E0.80000 F2100.000
;TYPE:Perimeter
G1 F1200.000
G1 X126.673 Y89.901 E0.01202
G1 X126.314 Y89.854 E0.01136
M73 Q1 S25
G1 X125.990 Y89.719 E0.01100
G1 X125.712 Y89.506 E0.01100
G1 X125.498 Y89.228 E0.01100
G1 X125.392 Y88.971 E0.00870
G1 X125.286 Y89.228 E0.00870
G1 X125.072 Y89.506 E0.01100
G1 X124.794 Y89.719 E0.01100
G1 X124.511 Y89.837 E0.00960
G1 X124.133 Y89.901 E0.01202
G1 X123.774 Y89.854 E0.01136
G1 X123.450 Y89.719 E0.01100
G1 X123.172 Y89.506 E0.01100
G1 X122.958 Y89.228 E0.01100
G1 X122.852 Y88.971 E0.00870
G1 X122.746 Y89.228 E0.00870
G1 X122.532 Y89.506 E0.01100
G1 X122.254 Y89.719 E0.01100
G1 X121.971 Y89.837 E0.00960
G1 X121.593 Y89.901 E0.01202
G1 X121.234 Y89.854 E0.01136
G1 X120.910 Y89.719 E0.01100
G1 X120.632 Y89.506 E0.01100
G1 X120.418 Y89.228 E0.01100
G1 X120.312 Y88.971 E0.00870
G1 X120.206 Y89.228 E0.00870
G1 X119.992 Y89.506 E0.01100
G1 X119.714 Y89.719 E0.01100
G1 X119.431 Y89.837 E0.00959
G1 X119.053 Y89.901 E0.01202
G1 X118.694 Y89.854 E0.01136
G1 X118.370 Y89.719 E0.01100
G1 X118.092 Y89.506 E0.01100
G1 X117.878 Y89.228 E0.01100
G1 X117.772 Y88.971 E0.00870
G1 X117.666 Y89.228 E0.00870
G1 X117.452 Y89.506 E0.01100
G1 X117.174 Y89.719 E0.01100
G1 X116.891 Y89.837 E0.00959
G1 X116.513 Y89.901 E0.01202
G1 X116.154 Y89.854 E0.01136
G1 X115.830 Y89.719 E0.01100
G1 X115.552 Y89.506 E0.01100
G1 X115.338 Y89.228 E0.01100
G1 X115.204 Y88.903 E0.01100
G1 X115.158 Y88.556 E0.01100
G1 X115.204 Y88.208 E0.01100
G1 X115.338 Y87.884 E0.01100
G1 X115.552 Y87.605 E0.01100
G1 X115.830 Y87.392 E0.01100
G1 X116.154 Y87.258 E0.01100
G1 X116.458 Y87.218 E0.00959
G1 X116.839 Y87.253 E0.01202
G1 X117.174 Y87.392 E0.01136
G1 X117.452 Y87.605 E0.01100
G1 X117.666 Y87.884 E0.01100
G1 X117.772 Y88.140 E0.00870
G1 X117.861 Y87.925 E0.00729
G1 X118.083 Y87.612 E0.01202
G1 X118.370 Y87.392 E0.01136
G1 X118.694 Y87.258 E0.01100
G1 X118.998 Y87.218 E0.00959
G1 X119.379 Y87.253 E0.01202
G1 X119.714 Y87.392 E0.01136
G1 X119.992 Y87.605 E0.01100
G1 X120.206 Y87.884 E0.01100
G1 X120.312 Y88.140 E0.00870
G1 X120.418 Y87.884 E0.00870
G1 X120.632 Y87.605 E0.01100
G1 X120.910 Y87.392 E0.01100
G1 X121.234 Y87.258 E0.01100
G1 X121.538 Y87.218 E0.00959
G1 X121.919 Y87.253 E0.01202
G1 X122.254 Y87.392 E0.01136
G1 X122.532 Y87.605 E0.01100
G1 X122.746 Y87.884 E0.01100
G1 X122.852 Y88.140 E0.00870
G1 X122.941 Y87.925 E0.00729
G1 X123.163 Y87.612 E0.01202
G1 X123.450 Y87.392 E0.01136
G1 X123.774 Y87.258 E0.01100
G1 X124.078 Y87.218 E0.00959
G1 X124.459 Y87.253 E0.01202
G1 X124.794 Y87.392 E0.01136
G1 X125.072 Y87.605 E0.01100
G1 X125.286 Y87.884 E0.01100
G1 X125.392 Y88.140 E0.00870
G1 X125.481 Y87.925 E0.00729
G1 X125.703 Y87.612 E0.01202
G1 X125.990 Y87.392 E0.01136
G1 X126.314 Y87.258 E0.01100
G1 X126.618 Y87.218 E0.00959
G1 X126.999 Y87.253 E0.01202
G1 X127.334 Y87.392 E0.01136
G1 X127.612 Y87.605 E0.01100
G1 X127.826 Y87.884 E0.01100
G1 X127.960 Y88.208 E0.01100
G1 X128.006 Y88.556 E0.01100
G1 X127.960 Y88.903 E0.01100
G1 X127.826 Y89.228 E0.01100
G1 X127.612 Y89.506 E0.01100
G1 X127.334 Y89.719 E0.01100
G1 X127.107 Y89.814 E0.00771
;WIPE_START
G1 F8640.000
G1 X126.673 Y89.901 E-0.10209
G1 X126.314 Y89.854 E-0.08363
G1 X125.990 Y89.719 E-0.08100
G1 X125.712 Y89.506 E-0.08100
G1 X125.498 Y89.228 E-0.08101
G1 X125.392 Y88.971 E-0.06406
G1 X125.286 Y89.228 E-0.06406
G1 X125.072 Y89.506 E-0.08101
G1 X124.794 Y89.719 E-0.08101
G1 X124.630 Y89.788 E-0.04113
;WIPE_END
G1 E-0.04000 F2100.000
G1 Z0.800 F10800.000
G1 X123.991 Y89.502
G1 Z0.200
G1 E0.80000 F2100.000
;TYPE:External perimeter
G1 F1200.000
G1 X123.873 Y89.486 E0.00375
G1 X123.640 Y89.390 E0.00789
G1 X123.441 Y89.237 E0.00789
G1 X123.288 Y89.037 E0.00789
G1 X123.206 Y88.840 E0.00671
G1 X123.158 Y88.560 E0.00891
G1 X123.191 Y88.306 E0.00801
G1 X123.273 Y88.109 E0.00671
G1 X123.438 Y87.877 E0.00891
G1 X123.640 Y87.721 E0.00801
G1 X123.873 Y87.625 E0.00789
G1 X124.085 Y87.597 E0.00671
G1 X124.368 Y87.623 E0.00891
G1 X124.604 Y87.721 E0.00801
G1 X124.803 Y87.874 E0.00789
G1 X124.957 Y88.074 E0.00789
G1 X125.053 Y88.306 E0.00789
G1 X125.086 Y88.556 E0.00789
G1 X125.053 Y88.805 E0.00789
G1 X124.957 Y89.037 E0.00789
G1 X124.803 Y89.237 E0.00789
G1 X124.604 Y89.390 E0.00789
G1 X124.406 Y89.472 E0.00671
G1 X124.126 Y89.520 E0.00891
G1 X124.051 Y89.510 E0.00239
G1 X123.925 Y89.601 F10800.000
;WIPE_START
G1 F8640.000
G1 X123.873 Y89.486 E-0.04144
G1 X123.640 Y89.390 E-0.05808
G1 X123.441 Y89.237 E-0.05808
G1 X123.288 Y89.037 E-0.05808
G1 X123.206 Y88.840 E-0.04941
G1 X123.158 Y88.560 E-0.06560
G1 X123.191 Y88.306 E-0.05902
G1 X123.273 Y88.109 E-0.04941
G1 X123.438 Y87.877 E-0.06559
G1 X123.640 Y87.721 E-0.05902
G1 X123.873 Y87.625 E-0.05808
G1 X124.085 Y87.597 E-0.04941
G1 X124.368 Y87.623 E-0.06560
G1 X124.461 Y87.662 E-0.02319
;WIPE_END
G1 E-0.04000 F2100.000
G1 Z0.800 F10800.000
G1 X127.442 Y88.002
G1 Z0.200
G1 E0.80000 F2100.000
G1 F1200.000
G1 X127.497 Y88.074 E0.00283
G1 X127.593 Y88.306 E0.00789
G1 X127.626 Y88.556 E0.00789
G1 X127.593 Y88.805 E0.00789
G1 X127.497 Y89.037 E0.00789
G1 X127.343 Y89.237 E0.00789
G1 X127.144 Y89.390 E0.00789
G1 X126.946 Y89.472 E0.00671
G1 X126.666 Y89.520 E0.00891
G1 X126.413 Y89.486 E0.00801
G1 X126.180 Y89.390 E0.00789
G1 X125.981 Y89.237 E0.00789
G1 X125.828 Y89.037 E0.00789
G1 X125.731 Y88.805 E0.00789
G1 X125.699 Y88.556 E0.00789
G1 X125.731 Y88.306 E0.00789
G1 X125.813 Y88.109 E0.00671
G1 X125.978 Y87.877 E0.00891
G1 X126.180 Y87.721 E0.00801
G1 X126.413 Y87.625 E0.00789
G1 X126.625 Y87.597 E0.00671
G1 X126.908 Y87.623 E0.00891
G1 X127.144 Y87.721 E0.00801
G1 X127.343 Y87.874 E0.00789
G1 X127.405 Y87.955 E0.00317
G1 X127.530 Y87.986 F10800.000
;WIPE_START
G1 F8640.000
G1 X127.497 Y88.074 E-0.03471
G1 X127.593 Y88.306 E-0.05808
G1 X127.626 Y88.556 E-0.05808
G1 X127.593 Y88.805 E-0.05808
G1 X127.497 Y89.037 E-0.05808
G1 X127.343 Y89.237 E-0.05808
G1 X127.144 Y89.390 E-0.05808
G1 X126.946 Y89.472 E-0.04941
G1 X126.666 Y89.520 E-0.06560
G1 X126.413 Y89.486 E-0.05902
G1 X126.180 Y89.390 E-0.05808
G1 X125.981 Y89.237 E-0.05808
G1 X125.828 Y89.037 E-0.05808
G1 X125.780 Y88.923 E-0.02854
;WIPE_END
G1 E-0.04000 F2100.000
G1 Z0.800 F10800.000
G1 X120.632 Y88.453
G1 Z0.200
G1 E0.80000 F2100.000
G1 F1200.000
G1 X120.651 Y88.306 E0.00464
G1 X120.748 Y88.074 E0.00789
G1 X120.901 Y87.874 E0.00789
G1 X121.100 Y87.721 E0.00789
G1 X121.333 Y87.625 E0.00789
G1 X121.545 Y87.597 E0.00671
G1 X121.828 Y87.623 E0.00891
G1 X122.064 Y87.721 E0.00801
G1 X122.263 Y87.874 E0.00789
G1 X122.417 Y88.074 E0.00789
G1 X122.513 Y88.306 E0.00789
G1 X122.546 Y88.556 E0.00789
G1 X122.513 Y88.805 E0.00789
G1 X122.417 Y89.037 E0.00789
G1 X122.263 Y89.237 E0.00789
G1 X122.064 Y89.390 E0.00789
G1 X121.866 Y89.472 E0.00671
G1 X121.586 Y89.520 E0.00891
G1 X121.333 Y89.486 E0.00801
G1 X121.100 Y89.390 E0.00789
G1 X120.901 Y89.237 E0.00789
G1 X120.748 Y89.037 E0.00789
G1 X120.651 Y88.805 E0.00789
G1 X120.624 Y88.513 E0.00921
G1 X120.506 Y88.376 F10800.000
;WIPE_START
G1 F8640.000
G1 X120.651 Y88.306 E-0.04805
G1 X120.748 Y88.074 E-0.05808
G1 X120.901 Y87.874 E-0.05808
G1 X121.100 Y87.721 E-0.05808
G1 X121.333 Y87.625 E-0.05808
G1 X121.545 Y87.597 E-0.04941
G1 X121.828 Y87.623 E-0.06560
G1 X122.064 Y87.721 E-0.05902
G1 X122.263 Y87.874 E-0.05808
G1 X122.417 Y88.074 E-0.05808
G1 X122.513 Y88.306 E-0.05808
G1 X122.546 Y88.556 E-0.05808
G1 X122.513 Y88.805 E-0.05808
G1 X122.488 Y88.866 E-0.01521
;WIPE_END
G1 E-0.04000 F2100.000
G1 Z0.800 F10800.000
G1 X118.783 Y89.482
G1 Z0.200
G1 E0.80000 F2100.000
G1 F1200.000
G1 X118.560 Y89.390 E0.00756
G1 X118.361 Y89.237 E0.00789
G1 X118.208 Y89.037 E0.00789
G1 X118.111 Y88.805 E0.00789
G1 X118.079 Y88.556 E0.00789
G1 X118.111 Y88.306 E0.00789
G1 X118.193 Y88.109 E0.00671
G1 X118.358 Y87.877 E0.00891
G1 X118.560 Y87.721 E0.00801
G1 X118.793 Y87.625 E0.00789
G1 X119.005 Y87.597 E0.00671
G1 X119.288 Y87.623 E0.00891
G1 X119.524 Y87.721 E0.00801
G1 X119.723 Y87.874 E0.00789
G1 X119.877 Y88.074 E0.00789
G1 X119.973 Y88.306 E0.00789
G1 X120.006 Y88.556 E0.00789
G1 X119.973 Y88.805 E0.00789
G1 X119.877 Y89.037 E0.00789
G1 X119.723 Y89.237 E0.00789
G1 X119.524 Y89.390 E0.00789
G1 X119.326 Y89.472 E0.00671
G1 X119.046 Y89.520 E0.00891
G1 X118.842 Y89.493 E0.00646
G1 X118.614 Y89.654 F10800.000
;WIPE_START
G1 F8640.000
G1 X118.560 Y89.390 E-0.06922
G1 X118.361 Y89.237 E-0.05808
G1 X118.208 Y89.037 E-0.05808
G1 X118.111 Y88.805 E-0.05808
G1 X118.079 Y88.556 E-0.05808
G1 X118.111 Y88.306 E-0.05808
G1 X118.193 Y88.109 E-0.04941
G1 X118.358 Y87.877 E-0.06560
G1 X118.560 Y87.721 E-0.05902
G1 X118.793 Y87.625 E-0.05808
G1 X119.005 Y87.597 E-0.04941
G1 X119.288 Y87.623 E-0.06560
G1 X119.501 Y87.712 E-0.05327
;WIPE_END
G1 E-0.04000 F2100.000
G1 Z0.800 F10800.000
G1 X116.864 Y89.440
G1 Z0.200
G1 E0.80000 F2100.000
G1 F1200.000
G1 X116.786 Y89.472 E0.00263
G1 X116.506 Y89.520 E0.00891
G1 X116.253 Y89.486 E0.00801
G1 X116.020 Y89.390 E0.00789
G1 X115.821 Y89.237 E0.00789
G1 X115.668 Y89.037 E0.00789
G1 X115.571 Y88.805 E0.00789
G1 X115.539 Y88.556 E0.00789
G1 X115.571 Y88.306 E0.00789
G1 X115.668 Y88.074 E0.00789
G1 X115.821 Y87.874 E0.00789
G1 X116.020 Y87.721 E0.00789
G1 X116.253 Y87.625 E0.00789
G1 X116.465 Y87.597 E0.00671
G1 X116.748 Y87.623 E0.00891
G1 X116.984 Y87.721 E0.00801
G1 X117.183 Y87.874 E0.00789
G1 X117.337 Y88.074 E0.00789
G1 X117.433 Y88.306 E0.00789
G1 X117.466 Y88.556 E0.00789
G1 X117.433 Y88.805 E0.00789
G1 X117.337 Y89.037 E0.00789
G1 X117.183 Y89.237 E0.00789
G1 X116.984 Y89.390 E0.00789
G1 X116.919 Y89.417 E0.00220
G1 X116.858 Y89.524 F10800.000
;WIPE_START
G1 F8640.000
G1 X116.786 Y89.472 E-0.03323
G1 X116.506 Y89.520 E-0.06560
G1 X116.253 Y89.486 E-0.05902
G1 X116.020 Y89.390 E-0.05808
G1 X115.821 Y89.237 E-0.05808
G1 X115.668 Y89.037 E-0.05808
G1 X115.571 Y88.805 E-0.05808
G1 X115.539 Y88.556 E-0.05808
G1 X115.571 Y88.306 E-0.05808
G1 X115.668 Y88.074 E-0.05808
G1 X115.821 Y87.874 E-0.05808
G1 X116.020 Y87.721 E-0.05808
G1 X116.253 Y87.625 E-0.05808
G1 X116.344 Y87.613 E-0.02136
;WIPE_END
G1 E-0.04000 F2100.000
G1 Z0.800 F10800.000
G1 X130.656 Y100.185
G1 Z0.200
G1 E0.80000 F2100.000
;TYPE:Perimeter
G1 F1200.000
G1 X130.943 Y99.965 E0.01136
G1 X131.267 Y99.831 E0.01100
G1 X131.571 Y99.791 E0.00959
G1 X131.952 Y99.826 E0.01202
G1 X132.287 Y99.965 E0.01136
G1 X132.565 Y100.178 E0.01100
G1 X132.779 Y100.457 E0.01100
G1 X132.885 Y100.713 E0.00870
G1 X132.991 Y100.457 E0.00870
G1 X133.205 Y100.178 E0.01100
G1 X133.483 Y99.965 E0.01100
G1 X133.807 Y99.831 E0.01100
G1 X134.111 Y99.791 E0.00960
G1 X134.492 Y99.826 E0.01202
